X:1
T:French Suite I Menuet I & II
T:BWV 812
T:J. S. Bach
%%score { ( 1 2 ) | ( 3 4 ) }
L:1/8
Q:1/4=184
M:3/4
K:F
V:1 treble nm="Harp"
V:2 treble 
V:3 bass 
V:4 bass 
V:1
"^Presto" df be fa | Bd g^c df | G2 A/4G/4A/4G/4A/4G/4A/4G/4 A/4G/4A/4G/4 F/G/ | A6- | Af ed ea | %5
 da ^g^f g=b | ae dc =Bc | A4 z2 | df be fa | Bd g^c df | %10
 G2 A/4G/4A/4G/4A/4G/4A/4G/4 A/4G/4A/4G/4 F/G/ | A6- | Af ed ea | da ^g^f g=b | ae dc =Bc | A6 | %16
 A2 c/4B/4c/4B/4c/4B/4c/4B/4 c2 | B2 AG A2- | AG FE FG | FE DE C2 | F6- | F6- | F2 G2 E2 | %23
 FE FG AB | c_e dc dB | Gf ed ec | Ag fe fd | ed ^c=B cA | d6- | d6- | d2 fe d^c | d6 | %32
 A2 c/4B/4c/4B/4c/4B/4c/4B/4 c2 | B2 AG A2- | AG FE FG | FE DE C2 | F6- | F6- | F2 G2 E2 | %39
 FE FG AB | c_e dc dB | Gf ed ec | Ag fe fd | ed ^c=B cA | d6- | d6- | d2 fe d^c | !fermata!d6 |] %48
 A2 A3 G/A/ | Bc dB cA | GA/4G/4A/4G/4 A/4G/4A/4B/4 c2 B | AG BA GF | d6- | d6- | dd ^c=B AG | %55
 FE GF ED | A2 A3 G/A/ | Bc dB cA | G2 G3 F/G/ | AB cA BG | F2 F3 E/F/ | GA BA BG | A2 GF EF | D6 | %64
 A2 A3 G/A/ | Bc dB cA | GA/4G/4A/4G/4 A/4G/4A/4B/4 c2 B | AG BA GF | d6- | d6- | dd ^c=B AG | %71
 FE GF ED | A2 A3 G/A/ | Bc dB cA | G2 G3 F/G/ | AB cA BG | F2 F3 E/F/ | GA BA BG | A2 GF EF | D6 | %80
 AG FG AB | cG AB cB | c_e dc BA | BA cB AG | c2 d/4^c/4d/4c/4d/4c/4d/4c/4 d/4c/4d/4c/4 =B/c/ | %85
 d2 e/4d/4e/4d/4e/4d/4e/4d/4 e/4d/4e/4d/4 ^c/d/ | ef ge fd | e2 d^c =BA | A2 A3 G/A/ | Bc dB cA | %90
 G2 A/4B/4A/4G/4A/4B/4 c3/2B | AG BA GF | d6- | d6- | dd ^c=B AG | FE GF ED | A2 A3 G/A/ | %97
 Bc dB cA | G2 G3 F/G/ | AB cA BG | F2 F3 E/F/ | GA BA BG | A2 GF EF | D6 | AG FG AB | cG AB cB | %106
 c_e dc BA | BA cB AG | c2 d/4^c/4d/4c/4d/4c/4d/4c/4 d/4c/4d/4c/4 =B/c/ | %109
 d2 e/4d/4e/4d/4e/4d/4e/4d/4 e/4d/4e/4d/4 ^c/d/ | ef ge fd | e2 d^c =BA | A2 A3 G/A/ | Bc dB cA | %114
 G2 A/4B/4A/4G/4A/4B/4 c3/2B | AG BA GF | d6- | d6- | dd ^c=B AG | FE GF ED | A2 A3 G/A/ | %121
 Bc dB cA | G2 G3 F/G/ | AB cA BG | F2 F3 E/F/ | GA BA BG | A2 GF EF | D6 |] %128
V:2
 F2 G2 A2 | G2 FE F2- | FE D^C DE | D^C =B,C A,2 | D2 C=B, C[I:staff +1]A, | %5
[I:staff -1] ^G,2[I:staff +1] B,/4A,/4B,/4A,/4B,/4A,/4B,/4A,/4 =B,2 | E,2 A,2 ^G,2 | %7
 A,2[I:staff -1] z2 z2 | F2 G2 A2 | G2 FE F2- | FE D^C DE | D^C =B,C A,2 | %12
 D2 C=B, C[I:staff +1]A, |[I:staff -1] ^G,2[I:staff +1] B,/4A,/4B,/4A,/4B,/4A,/4B,/4A,/4 =B,2 | %14
 E,2 A,2 ^G,2 | A,6 |[I:staff -1] F6- | F6 | D6 | C4- CB, |[I:staff +1] A,C DG, A,C | %21
 F,A, B,E, F,A, |[I:staff -1] C2 B,A, G,A, |[I:staff +1] F,4[I:staff -1] z2 | %24
 z2[I:staff +1] F,E, F,2 |[I:staff -1] z2[I:staff +1] G,F, G,2 | %26
[I:staff -1] z2[I:staff +1] A,2 D2 | ^CD E2 A,2 |[I:staff -1] A2 c/4B/4c/4B/4c/4B/4c/4B/4 c2- | %29
 cB AG A2 | F2 G2 E2 | D6 | F6- | F6 | D6 | C4- CB, |[I:staff +1] A,C DG, A,C | F,A, B,E, F,A, | %38
[I:staff -1] C2 B,A, G,A, |[I:staff +1] F,4[I:staff -1] z2 | z2[I:staff +1] F,E, F,2 | %41
[I:staff -1] z2[I:staff +1] G,F, G,2 |[I:staff -1] z2[I:staff +1] A,2 D2 | ^CD E2 A,2 | %44
[I:staff -1] A2 c/4B/4c/4B/4c/4B/4c/4B/4 c2- | cB AG A2 | F2 G2 E2 | D6 |] F2 F4 | G4- GF | E2 E4 | %51
 F4 z2 | F2 F2 EF | GA BG AF | E6 | D4 z2 | F2 F4- | F6- | F2 E4- | E6- | E2 D4- | D2 ^C4 | %62
 D4 ^C2 | D6 | F2 F4 | G4- GF | E2 E4 | F4 z2 | F2 F2 EF | GA BG AF | E6 | D4 z2 | F2 F4- | F6- | %74
 F2 E4- | E6- | E2 D4- | D2 ^C4 | D4 ^C2 | D6 | x6 | x6 | x6 | x6 | E2 E4 | A2 A4- | A2 ^c2 d2 | %87
 ^c2 z2 z2 | F2 F4 | G4- GF | E2 E4 | F4 z2 | F2 F3 E/F/ | GA BG AF | E6 | D4 z2 | F2 F4- | F6- | %98
 F2 E4- | E6- | E2 D4- | D2 ^C4 | D4 ^C2 | D6 | x6 | x6 | x6 | x6 | E2 E4 | A2 A4- | A2 ^c2 d2 | %111
 ^c2 z2 z2 | F2 F4 | G4- GF | E2 E4 | F4 z2 | F2 F3 E/F/ | GA BG AF | E6 | D4 z2 | F2 F4- | F6- | %122
 F2 E4- | E6- | E2 D4- | D2 ^C4 | D4 ^C2 | D6 |] %128
V:3
 D6- | D6 | B,6 | A,4- A,G, | F,6- | F,2 E,2 D,2 | C,2 D,2 E,2 | A,,2 A,=B, ^CA, | D6- | D6 | B,6 | %11
 A,4- A,G, | F,6- | F,2 E,2 D,2 | C,2 D,2 E,2 | A,,6 | F,A, DG, A,C | D,F, B,E, F,A, | %18
 B,,2 C,/4=B,,/4C,/4B,,/4C,/4B,,/4C,/4B,,/4 C,/4B,,/4C,/4B,,/4 A,,/B,,/ | C,2 D,2 E,2 | %20
 _E,2 F,E, D,C, | D,2 C,B,, A,,G,, | A,,2 B,,2 C,2 | F,2 F,,2 G,,2 | A,,2 B,,3 G,, | %25
 C,=B,, C,2- C,A,, | D,^C, D,2 B,2- | B,2 A,G, F,E, | ^F,A, DG, A,C | D,G, B,E, F,A, | %30
 B,,2 G,,2 A,,2 | D,6 | F,A, DG, A,C | D,F, B,E, F,A, | %34
 B,,2 C,/4=B,,/4C,/4B,,/4C,/4B,,/4C,/4B,,/4 C,/4B,,/4C,/4B,,/4 A,,/B,,/ | C,2 D,2 E,2 | %36
 _E,2 F,E, D,C, | D,2 C,B,, A,,G,, | A,,2 B,,2 C,2 | F,2 F,,2 G,,2 | A,,2 B,,3 G,, | %41
 C,=B,, C,2- C,A,, | D,^C, D,2 B,2- | B,2 A,G, F,E, | ^F,A, DG, A,C | D,G, B,E, F,A, | %46
 B,,2 G,,2 A,,2 | D,6 |] D,2 D2 C2 | B,2 A,G, A,B, | C2 C,B,, A,,G,, | F,,2 G,,2 A,,2 | %52
 B,,F, B,A, G,F, | E,^C, D,E, F,G, | A,2 A,,2 A,2 | D,2 F,,2 A,,2 | D,,A,, D,C, B,,A,, | %57
 G,,A,, B,,G,, A,,B,, | C,G, CB, A,G, | F,G, A,F, G,A, | B,C B,A, G,F, | E,F, G,F, G,E, | %62
 F,2 G,2 A,2 | D,2 A,,2 D,,2 | D,2 D2 C2 | B,2 A,G, A,B, | C2 C,B,, A,,G,, | F,,2 G,,2 A,,2 | %68
 B,,F, B,A, G,F, | E,^C, D,E, F,G, | A,2 A,,2 A,2 | D,2 F,,2 A,,2 | D,,A,, D,C, B,,A,, | %73
 G,,A,, B,,G,, A,,B,, | C,G, CB, A,G, | F,G, A,F, G,A, | B,C B,A, G,F, | E,F, G,F, G,E, | %78
 F,2 G,2 A,2 | D,2 A,,2 D,,2 | D,2 E,/4D,/4E,/4D,/4E,/4D,/4E,/4D,/4 E,/4D,/4E,/4D,/4 C,/D,/ | E,6 | %82
 ^F,2 G,/4F,/4G,/4F,/4G,/4F,/4G,/4F,/4 G,/4F,/4G,/4F,/4 E,/[F,F,]/ | G,2 D,2 G,,2 | %84
 G,F, G,B, A,G, | F,A, G,F, E,D, | ^C,2 A,,2 D,2 | A,,2 =B,,2 ^C,2 | D,2 D2 C2 | B,2 A,G, A,B, | %90
 C2 C,B,, A,,G,, | F,,2 G,,2 A,,2 | B,,F, B,A, G,F, | E,^C, D,E, F,G, | A,2 A,,2 A,2 | %95
 D,2 F,,2 A,,2 | D,,A,, D,C, B,,A,, | G,,A,, B,,G,, A,,B,, | C,G, CB, A,G, | F,G, A,F, G,A, | %100
 B,C B,A, G,F, | E,F, G,F, G,E, | F,2 G,2 A,2 | D,2 A,,2 D,,2 | %104
 D,2 E,/4D,/4E,/4D,/4E,/4D,/4E,/4D,/4 E,/4D,/4E,/4D,/4 C,/D,/ | E,6 | %106
 ^F,2 G,/4F,/4G,/4F,/4G,/4F,/4G,/4F,/4 G,/4F,/4G,/4F,/4 E,/[F,F,]/ | G,2 D,2 G,,2 | %108
 G,F, G,B, A,G, | F,A, G,F, E,D, | ^C,2 A,,2 D,2 | A,,2 =B,,2 ^C,2 | D,2 D2 C2 | B,2 A,G, A,B, | %114
 C2 C,B,, A,,G,, | F,,2 G,,2 A,,2 | B,,F, B,A, G,F, | E,^C, D,E, F,G, | A,2 A,,2 A,2 | %119
 D,2 F,,2 A,,2 | D,,A,, D,C, B,,A,, | G,,A,, B,,G,, A,,B,, | C,G, CB, A,G, | F,G, A,F, G,A, | %124
 B,C B,A, G,F, | E,F, G,F, G,E, | F,2 G,2 A,2 | D,2 A,,2 D,,2 |] %128
V:4
 x6 | x6 | x6 | x6 | x6 | x6 | x6 | x6 | x6 | x6 | x6 | x6 | x6 | x6 | x6 | x6 | x6 | x6 | x6 | %19
 x6 | x6 | x6 | x6 | x6 | x6 | x6 | x6 | x6 | x6 | x6 | x6 | D,,6 | x6 | x6 | x6 | x6 | x6 | x6 | %38
 x6 | x6 | x6 | x6 | x6 | x6 | x6 | x6 | x6 | !fermata!D,,6 |] x6 | x6 | x6 | x6 | x6 | x6 | x6 | %55
 x6 | x6 | x6 | x6 | x6 | x6 | x6 | x6 | x6 | x6 | x6 | x6 | x6 | x6 | x6 | x6 | x6 | x6 | x6 | %74
 x6 | x6 | x6 | x6 | x6 | x6 | x6 | G,2 A,/4G,/4A,/4G,/4A,/4G,/4A,/4G,/4 A,/4G,/4A,/4G,/4^F,/G,/ | %82
 A,6 | G,6 | x6 | x6 | x6 | x6 | x6 | x6 | x6 | x6 | x6 | x6 | x6 | x6 | x6 | x6 | x6 | x6 | x6 | %101
 x6 | x6 | x6 | x6 | G,2 A,/4G,/4A,/4G,/4A,/4G,/4A,/4G,/4 A,/4G,/4A,/4G,/4^F,/G,/ | A,6 | G,6 | %108
 x6 | x6 | x6 | x6 | x6 | x6 | x6 | x6 | x6 | x6 | x6 | x6 | x6 | x6 | x6 | x6 | x6 | x6 | x6 | %127
 x6 |] %128

